Origami/32x32/apps/milkytracker.svg

<svg width="32" height="32" version="1" xmlns="http://www.w3.org/2000/svg">
 <path d="m27 29.6v-19.6h-22v19.6c0 0.7756 0.61325 1.4 1.375 1.4h19.25c0.76175 0 1.375-0.6244 1.375-1.4z" style="opacity:.2"/>
 <path d="m27 28.6v-19.6h-22v19.6c0 0.7756 0.61325 1.4 1.375 1.4h19.25c0.76175 0 1.375-0.6244 1.375-1.4z" style="fill:#cccccc"/>
 <path d="m10 5h12l5 4h-22z" style="fill:#b8b8b8"/>
 <rect x="10" y="2" width="12" height="3" style="fill:#a3a3a3"/>
 <path d="m22 5l5 4h-9z" style="fill:#a3a3a3"/>
 <path d="m 18,9 v 21 h 7.714286 C 26.426571,30 27,29.3756 27,28.6 V 9 Z" style="fill:#b8b8b8"/>
 <path d="m14 23.971516v-7.985758m-5.9914145 0 2.9914145 4 3-4m-5.9914145 7.985758v-7.985758" style="fill:none;opacity:.2;stroke-linecap:round;stroke-linejoin:round;stroke-width:2;stroke:#000000"/>
 <path d="M 14,22.985758 V 15 M 8.0085855,15 11,19 14,15 M 8.0085855,22.985758 V 15" style="fill:none;stroke-linecap:round;stroke-linejoin:round;stroke-width:2;stroke:#3a86c5"/>
 <path d="m21 15.985758h4m-2 8v-8" style="fill:none;opacity:.2;stroke-linecap:round;stroke-width:2;stroke:#000000"/>
 <path d="m21 15h4m-2 8v-8" style="fill:none;stroke-linecap:round;stroke-width:2;stroke:#3a86c5"/>
 <path d="m10 2v1h12v-1h-12z" style="fill:#ffffff;opacity:.1"/>
</svg>

<svg xmlns="http://www.w3.org/2000/svg" width="32" height="32" version="1">
 <path style="opacity:0.2" d="M 27,29.6 V 10 H 5 V 29.6 C 5,30.3756 5.61325,31 6.375,31 h 19.25 C 26.38675,31 27,30.3756 27,29.6 Z"/>
 <path style="fill:#cccccc" d="M 27,28.6 V 9 H 5 V 28.6 C 5,29.3756 5.61325,30 6.375,30 h 19.25 C 26.38675,30 27,29.3756 27,28.6 Z"/>
 <path style="fill:#b8b8b8" d="m 10,5 h 12 l 5,4 H 5 Z"/>
 <rect style="fill:#a3a3a3" width="12" height="3" x="10" y="2"/>
 <path style="fill:#a3a3a3" d="m 22,5 v 0 l 5,4 h -9 z"/>
 <path style="fill:#b8b8b8" d="m 18,9 v 21 h 7.714286 C 26.426571,30 27,29.3756 27,28.6 V 9 Z"/>
 <path style="opacity:0.2;fill:none;stroke:#000000;stroke-width:2;stroke-linecap:round;stroke-linejoin:round" d="m 14,23.971516 v -7.985758 m -5.9914145,0 2.9914145,4 3,-4 m -5.9914145,7.985758 v -7.985758"/>
 <path style="fill:none;stroke:#3a86c5;stroke-width:2;stroke-linecap:round;stroke-linejoin:round" d="M 14,22.985758 V 15 M 8.0085855,15 11,19 14,15 M 8.0085855,22.985758 V 15"/>
 <path style="opacity:0.2;fill:none;stroke:#000000;stroke-width:2;stroke-linecap:round" d="m 21,15.985758 h 4 m -2,8 v -8"/>
 <path style="fill:none;stroke:#3a86c5;stroke-width:2;stroke-linecap:round" d="m 21,15 h 4 m -2,8 v -8"/>
 <path style="opacity:0.1;fill:#ffffff" d="M 10 2 L 10 3 L 22 3 L 22 2 L 10 2 z"/>
</svg>
